!!!!SEGMENT: pl-wn--sd-xvi-qu-273--025_gomolka-mikolaj--do-ciebie-panie-wzdycha-serce-moje.krn
!!!cenid: 15xx:230
!!!COM: Gomółka, Mikołaj
!!!COM-rismid: pe30013343
!!!CDT: ~1535->1591/04/30
!!!CNT: Polish
!!!GTL: Melodiae na psalterz polski
!!!OTL: XXV. Do Ciebie, Panie, wzdycha serce moje,
!!!PDT: 1580
!!!AGN: Sacred
!!!SMS-siglum: PL-Wn
!!!SMS-shelfmark: SD XVI.Qu.273
!!!SMS-shelfwork: 025 G
!!!NIFC-rismid:
!!!ONB-nifc: Melodiae na psalterz polski
**kern	**text	**text	**kern	**text	**text	**kern	**text	**text	**kern	**text	**text
*part4	*part4	*part4	*part3	*part3	*part3	*part2	*part2	*part2	*part1	*part1	*part1
*staff4	*staff4	*staff4	*staff3	*staff3	*staff3	*staff2	*staff2	*staff2	*staff1	*staff1	*staff1
*clefF4	*	*	*clefC3	*	*	*clefC3	*	*	*clefC1	*	*
*k[b-]	*	*	*k[b-]	*	*	*k[b-]	*	*	*k[b-]	*	*
*c:	*	*	*c:	*	*	*c:	*	*	*c:	*	*
*M4/2	*	*	*M4/2	*	*	*M4/2	*	*	*M4/2	*	*
*met(C|)	*	*	*met(C|)	*	*	*met(C|)	*	*	*met(C|)	*	*
*>[A,A,B]	*	*	*>[A,A,B]	*	*	*>[A,A,B]	*	*	*>[A,A,B]	*	*
*>A	*	*	*>A	*	*	*>A	*	*	*>A	*	*
=1-	=1-	=1-	=1-	=1-	=1-	=1-	=1-	=1-	=1-	=1-	=1-
1G\	DO	W To-	1B-/	DO	W To-	1d\	DO	W To-	1g\	DO	W To-
1F\	ćie-	-biem	1c\	ćie-	-biem	1f\	ćie-	(-biem)	1a\	ćie-	(-biem)
=2-	=2-	=2-	=2-	=2-	=2-	=2-	=2-	=2-	=2-	=2-	=2-
2E-\X	-bie,	po-	2e-\X	-bie,	po-	2g\	-bie,	po-	2b-\	-bie,	po-
2C/	pá-	-ło-	2e-\	pá-	-ło-	2g\	pá-	-ło-	2cc\	pá-	-ło-
2D/	-nie,	-żył	2d\	-nie,	-żyl	2f\	-nie,	-żył	2a\	-nie,	-żył
4r	.	.	4r	.	.	4r	.	.	4r	.	.
4D/	wzdy-	ia	4d\	wzdy-	ia	4f\	wzdy-	ia	4a\	wzdy-	ia
=3-	=3-	=3-	=3-	=3-	=3-	=3-	=3-	=3-	=3-	=3-	=3-
2BB-/	-cha	u-	2.d\	-cha	u-	2f\	-cha	u-	2.b-\	-cha	u-
2C/	ſer-	-fá-	.	.	.	1e\	ſer-	-fá-	.	.	.
.	.	.	4c/	ſer-	-fá-	.	.	.	4a\	ſer-	-fá-
2E-\X	-ce	-nié	2B-/	-ce	-nié	.	-ce	-nié	2g/	-ce	-nié-
2E-\	mo-	ſwo-	4A/	mo-	ſwo-	2c/	mo-	ſwo-	2g/	mo-	-ſwo-
.	.	.	4G/	.	.	.	.	.	.	.	.
=4-	=4-	=4-	=4-	=4-	=4-	=4-	=4-	=4-	=4-	=4-	=4-
1D\	-ie,	-ie.	1A/	-ie,	-ie.	1d\	-ie,	-ie.	1f#/X	-ie,	-ie:
*>B	*	*	*>B	*	*	*>B	*	*	*>B	*	*
=:|!-	=:|!-	=:|!-	=:|!-	=:|!-	=:|!-	=:|!-	=:|!-	=:|!-	=:|!-	=:|!-	=:|!-
1.D\	Zá	.	1.d\	Zá	.	1.f\	Zá	.	1a\	Zá	.
=5-	=5-	=5-	=5-	=5-	=5-	=5-	=5-	=5-	=5-	=5-	=5-
.	.	.	.	.	.	.	.	.	2a\	co	.
2D/	co	.	2A/	co	.	2d\	co	.	2fn/	niech	.
2BB-/	niech	.	2B-/	niech	.	4d\	niech	.	1b-\	wſty-	.
.	.	.	.	.	.	4c/	.	.	.	.	.
2GG/	wſty-	.	2B-/	wſty-	.	4d\	wſty-	.	.	.	.
.	.	.	.	.	.	4e\	.	.	.	.	.
=6-	=6-	=6-	=6-	=6-	=6-	=6-	=6-	=6-	=6-	=6-	=6-
!!LO:PB:g=original
2D/	-du,	.	2F/	-du,	.	2f\	-du,	.	2a\	-du,	.
2E-\X	y	.	2G/	y	.	4B-/	y	.	2g/	y	.
.	.	.	.	.	.	4c/	żá-	.	.	.	.
2D/	żá-	.	2A/	żá-	.	4d\	-łoſ-	.	2f#/X	żá-	.
.	.	.	.	.	.	8c/L	-nych,	.	.	.	.
.	.	.	.	.	.	8d\J	.	.	.	.	.
4C/	-łoſ-	.	2B-/	-łoſ-	.	4e-\X	pro-	.	2g/	-łoſ-	.
4BB-/	-nych,	.	.	.	.	4d\	.	.	.	.	.
=7-	=7-	=7-	=7-	=7-	=7-	=7-	=7-	=7-	=7-	=7-	=7-
4AA/	pro-	.	2c/	-nych,	.	4c/	.	.	2a\	-nych,	.
4GG/	-ſzę,	.	.	.	.	4B-/	-ſzę,	.	.	.	.
2AA/	.	.	4B-/	pro-	.	2c/	.	.	2a\	pro-	.
.	.	.	4A/	-ſzę,	.	.	.	.	.	.	.
2GG/	.	.	2Bn/X	Nie-	.	2d\	Nie-	.	2d/	-ſzę,	.
2G\	Nie-	.	2d\	-przi-	.	2d\	-przi-	.	2g/	Nie-	.
=8-	=8-	=8-	=8-	=8-	=8-	=8-	=8-	=8-	=8-	=8-	=8-
2G\	-przi-	.	2d\	-ja-	.	2g\	-ja-	.	2bn\X	-przi-	.
!	!	!	!	!	!	!	!	!	!LO:SIC:v:t=prawdopodobnie powinno być "b" bez bemola:v	!	!
2G\	-ja-	.	2d\	-ciel-	.	2g\	-ćiel-	.	2b-\y	-ja-	.
1C/	-ćiel-	.	1e-\X	-ſkich	.	1g\	.	.	2.cc\	-ćiel-	.
.	.	.	.	.	.	.	.	.	4b-\	-ſkich	.
=9-	=9-	=9-	=9-	=9-	=9-	=9-	=9-	=9-	=9-	=9-	=9-
2F\	-ſkich	.	2c/	.	.	2f\	-ſkich	.	2a\	.	.
2D/	.	.	2d\	śmié-	.	2f\	śmié-	.	2a\	śmié-	.
2.A\	śmié-	.	2c/	.	.	2e\	.	.	2.cc\	-chów	.
.	.	.	2A/	-chów	.	2c#X/	-chów	.	.	.	.
4G\	-chów	.	.	.	.	.	.	.	4b-\	.	.
=10-	=10-	=10-	=10-	=10-	=10-	=10-	=10-	=10-	=10-	=10-	=10-
2F#\X	nie	.	2A/	nie	.	2.d\	.	.	2a\	nie	.
2G\	od-	.	2B-/	od-	.	.	.	.	2g\	od-	.
.	.	.	.	.	.	4e\	nie	.	.	.	.
1D\	-no-	.	1A/	-no-	.	4f#\X	.	.	2.dd\	-no-	.
.	.	.	.	.	.	2g\	od-	.	.	.	.
!	!	!	!	!	!	!LO:SIC:v:t=prawdopodobnie powinien być # ale specjalnie jest ukryty kasownik:v	!	!	!	!	!
.	.	.	.	.	.	4fn\y	-no-	.	4cc\	-szę.	.
=11-	=11-	=11-	=11-	=11-	=11-	=11-	=11-	=11-	=11-	=11-	=11-
!LO:N:vis=00	!	!	!	!	!	!LO:N:vis=00	!	!	!	!	!
000GG;/	-szę.	.	000G/	-szę.	.	000g\;	-szę.	.	000bn\X	.	.
==-	==-	==-	==-	==-	==-	==-	==-	==-	==-	==-	==-
*-	*-	*-	*-	*-	*-	*-	*-	*-	*-	*-	*-
!!!RDF**kern: l = terminal long
!!!system-decoration: s1,s2,s3,s4
!!!ENC: Leszek Kubiak
!!!END: data 2020-02-10
!!!URL-scan: https://polona.pl/item/melodiae-na-psalterz-polski,Nzk3MTM4ODQ/71 Scan on Polona
!!!IIIF: https://polona.pl/iiif/item/Nzk3MTM4ODQ/manifest.json
